modules/stroke-7/icons/cash.svg

<?xml version="1.0" encoding="utf-8"?>
<!-- Generated by IcoMoon.io -->
<!DOCTYPE svg PUBLIC "-//W3C//DTD SVG 1.1//EN" "http://www.w3.org/Graphics/SVG/1.1/DTD/svg11.dtd">
<svg version="1.1" xmlns="http://www.w3.org/2000/svg" xmlns:xlink="http://www.w3.org/1999/xlink" width="29" height="32" viewBox="0 0 29 32">
<g id="icomoon-ignore">
</g>
<path d="M16.784 10.755c-1.737 0-3.147 1.409-3.147 3.147s1.41 3.148 3.147 3.148c1.739 0 3.147-1.409 3.147-3.148s-1.409-3.147-3.147-3.147zM16.784 16c-1.156 0-2.098-0.941-2.098-2.099s0.941-2.098 2.098-2.098c1.158 0 2.098 0.941 2.098 2.098s-0.941 2.099-2.098 2.099z" fill="#000000"></path>
<path d="M4.196 6.034v15.735h25.176v-15.735h-25.176zM28.324 9.583v11.137h-23.078v-13.637h23.078v2.5z" fill="#000000"></path>
<path d="M23.746 22.819h-20.599v-14.686h-1.049v15.735h25.177v-1.049h-1.049z" fill="#000000"></path>
<path d="M21.648 24.917h-20.599v-14.686h-1.049v15.735h25.177v-1.049h-1.049z" fill="#000000"></path>
<path d="M6.819 8.165h3.147v1.049h-3.147v-1.049z" fill="#000000"></path>
<path d="M6.819 18.623h3.147v1.049h-3.147v-1.049z" fill="#000000"></path>
<path d="M23.603 8.165h3.147v1.049h-3.147v-1.049z" fill="#000000"></path>
<path d="M23.603 18.623h3.147v1.049h-3.147v-1.049z" fill="#000000"></path>
</svg>

<svg xmlns="http://www.w3.org/2000/svg" width="29" height="32" viewBox="0 0 29 32"><path d="M16.784 10.755a3.148 3.148 0 1 0 .001 6.295 3.148 3.148 0 0 0-.001-6.295zm0 5.245a2.1 2.1 0 0 1 0-4.197 2.1 2.1 0 0 1 0 4.197z"/><path d="M4.196 6.034v15.735h25.176V6.034H4.196zm24.128 3.549V20.72H5.246V7.083h23.078v2.5z"/><path d="M23.746 22.819H3.147V8.133H2.098v15.735h25.177v-1.049h-1.049z"/><path d="M21.648 24.917H1.049V10.231H0v15.735h25.177v-1.049h-1.049zM6.819 8.165h3.147v1.049H6.819V8.165z"/><path d="M6.819 18.623h3.147v1.049H6.819v-1.049zM23.603 8.165h3.147v1.049h-3.147V8.165zM23.603 18.623h3.147v1.049h-3.147v-1.049z"/></svg>
